svgs/regular/x-ray.svg

<svg xmlns="http://www.w3.org/2000/svg" viewBox="0 0 512 512"><!-- Font Awesome Pro 6.0.0-alpha2 by @fontawesome - https://fontawesome.com License - https://fontawesome.com/license (Commercial License) --><path d="M128 192H240V224H160C151.199 224 144 231.199 144 240C144 248.799 151.199 256 160 256H240V288H170.666C145.107 288 129.863 316.484 144.041 337.75L165.375 369.75C171.311 378.652 181.303 384 192.002 384H319.998C330.697 384 340.689 378.652 346.625 369.75L367.959 337.75C382.137 316.484 366.893 288 341.334 288H272V256H352C360.801 256 368 248.799 368 240C368 231.199 360.801 224 352 224H272V192H384C392.801 192 400 184.799 400 176C400 167.199 392.801 160 384 160H272V128C272 119.199 264.801 112 256 112S240 119.199 240 128V160H128C119.199 160 112 167.199 112 176C112 184.799 119.199 192 128 192ZM200 352C191.164 352 184 344.836 184 336C184 327.162 191.164 320 200 320S216 327.162 216 336C216 344.836 208.836 352 200 352ZM312 320C320.836 320 328 327.162 328 336C328 344.836 320.836 352 312 352S296 344.836 296 336C296 327.162 303.164 320 312 320ZM488 432H480V80H488C501.256 80 512 69.254 512 56S501.256 32 488 32H24C10.746 32 0 42.746 0 56S10.746 80 24 80H32V432H24C10.746 432 0 442.746 0 456S10.746 480 24 480H488C501.256 480 512 469.254 512 456S501.256 432 488 432ZM432 432H80V80H432V432Z"/></svg>

<svg xmlns="http://www.w3.org/2000/svg" viewBox="0 0 512 512"><!--! Font Awesome Pro 6.0.0-alpha3 by @fontawesome - https://fontawesome.com License - https://fontawesome.com/license (Commercial License) --><path d="M128 192h112v32H160C151.2 224 144 231.2 144 240C144 248.8 151.2 256 160 256h80v32H170.7c-25.56 0-40.8 28.48-26.62 49.75l21.33 32C171.3 378.7 181.3 384 192 384L319.1 384c10.7 0 20.69-5.348 26.63-14.25l21.33-32C382.1 316.5 366.9 288 341.3 288H272V256H352c8.801 0 16-7.201 16-16C368 231.2 360.8 224 352 224h-80V192H384c8.801 0 16-7.201 16-16C400 167.2 392.8 160 384 160h-112V128c0-8.801-7.199-16-16-16S240 119.2 240 128v32H128C119.2 160 112 167.2 112 176C112 184.8 119.2 192 128 192zM200 352c-8.836 0-16-7.164-16-16c0-8.838 7.164-16 16-16s16 7.162 16 16C216 344.8 208.8 352 200 352zM312 320c8.836 0 16 7.162 16 16c0 8.836-7.164 16-16 16s-16-7.164-16-16C296 327.2 303.2 320 312 320zM488 432H480v-352h8C501.3 80 512 69.25 512 56S501.3 32 488 32H24C10.75 32 0 42.75 0 56S10.75 80 24 80H32v352H24C10.75 432 0 442.7 0 456S10.75 480 24 480h464c13.26 0 24-10.75 24-24S501.3 432 488 432zM432 432h-352v-352h352V432z"/></svg>
